X:9
T:Scottish a Catinaux
I:last changed 14/2/2016
F:http://www.campin.me.uk/Music/Edinbal.abc
M:C
L:1/8
K:C
ef ed cG ce|gf ef d2 d2|GA Bc d2 de|[1 fe df e2 c2:|\
                                    [2 fe dB c4   ||
e2 g2 A2 Bc|dc BA G4   |GA Bc d2 de|[1 fe df e2 c2:|\
                                    [2 fe dB c4   |]

